Obsidian-SemiLight/actions/22s/path-clip-edit.svg

<svg viewBox="0 0 22 22" xmlns="http://www.w3.org/2000/svg"><path d="m3 4v14h16v-14zm7.941406 1.078125a6 6 0 0 1 6.058594 5.921875v.078125a6 6 0 0 1 -5.980469 6 6 6 0 0 1 -6.019531-5.960937 6 6 0 0 1 5.941406-6.039063z" fill="#4d4d4d"/></svg>

<svg xmlns="http://www.w3.org/2000/svg" viewBox="0 0 22 22">
  <defs id="defs3051">
    <style type="text/css" id="current-color-scheme">
      .ColorScheme-Text {
        color:#4d4d4d;
      }
      .ColorScheme-Highlight {
        color:#3daee9;
      }
      </style>
  </defs>
 <path 
     style="fill:currentColor;fill-opacity:1;stroke:none" 
     d="M 3 4 L 3 18 L 19 18 L 19 4 L 3 4 z M 10.941406 5.078125 A 6 6 0 0 1 17 11 L 17 11.078125 A 6 6 0 0 1 11.019531 17.078125 A 6 6 0 0 1 5 11.117188 A 6 6 0 0 1 10.941406 5.078125 z "
     class="ColorScheme-Text"
     />
</svg>
